X:3722
L:1/8
M:4/4
K:C
 C | E<GGA/B/ c>d c<G | E<GGc d<D D>F | E<GGA/B/ c>GA>a | ge g/f/e/d/ ecc :| e/f/ | 
 g>ce>c G>c e<c | f>d e<c d(DD)e/f/ | g>ce>c G>c e<c | fd g/a/g/f/ ecce/f/ | g>ce>c G>c e<c | 
 f>ge>f d(DDF) | G>E G<c AFAc | B<d G>f ecc ||

